X: 36333
T: Sean Bui
R: jig
M: 6/8
K: Dmajor
|:DF/G/A AFA|BGB AFA|D3 AFA|Bec d2A|
DF/G/A AFA|BGB AFA|dfd ecA|B3 d3:|
|:dg/f/d ecA|dcB AFA|dg/f/d ecA|B3 d2A|
dg/f/d ecA|dcB AFA|D3 AFA|Bec d2A||

